dist/svgs/unicons/line/mailbox-alt.svg

<svg xmlns="http://www.w3.org/2000/svg" data-name="Layer 1" viewBox="0 0 24 24"><path d="M11 13h2a1 1 0 000-2h-2a1 1 0 000 2zm8 7h-1V9h1a1 1 0 000-2h-1.09A6 6 0 006.09 7H5a1 1 0 000 2h1v11H5a1 1 0 000 2h14a1 1 0 000-2zM12 4a4 4 0 013.86 3H8.14A4 4 0 0112 4zm4 16H8v-2h8zm0-4H8V9h8z"/></svg>

<svg xmlns="http://www.w3.org/2000/svg" data-name="Layer 1" viewBox="0 0 24 24"><path d="M11,13h2a1,1,0,0,0,0-2H11a1,1,0,0,0,0,2Zm8,7H18V9h1a1,1,0,0,0,0-2H17.91A6,6,0,0,0,6.09,7H5A1,1,0,0,0,5,9H6V20H5a1,1,0,0,0,0,2H19a1,1,0,0,0,0-2ZM12,4a4,4,0,0,1,3.86,3H8.14A4,4,0,0,1,12,4Zm4,16H8V18h8Zm0-4H8V9h8Z"/></svg>
